X:1
T:Title
%%score { 1 | ( 2 3 ) }
L:1/8
Q:1/4=114
M:4/4
K:Db
V:1 treble nm="Grand Piano"
V:2 bass 
V:3 bass 
V:1
 F4 E2 D2 | G3 F F4 | [DFA]4 [A,EG]2 [A,DF]2 | [CGB]3 [DFA] [DFA]4 | [FAd]4 [EAc]2 [DAd]2 | %5
w: J.~B.~Herbert * *|||||
 [DGB]3 [DFA] [DF]2 [B,EG]2 | [CF]4[K:bass] [G,CE]3 [F,D] | [F,D]6 z2 | [CE]4 F2 G2 | B4 A2 F2 | %10
w: |||||
 A4 G2 F2 | F4 E2 z2 | [CE]4 [DF]2 [EG]2 | [GB]4 [FA]2 [DF]2 | [FA]4 [EG]2 [DF]2 | [DF]4 E2 z2 | %16
w: ||||||
 A4 B2 c2 | d3 A A4 | [Ad]4 [Ge]2 [Bd]2 | f3 e e4 | [FAd]4 [EGc]2 [DAd]2 | %21
w: |||||
 [DGB]3 [DFA] [DF]2 [B,EG]2 | [CF]4[K:bass] [G,CE]3 [F,D] | [F,D]6 z2 |] %24
w: |||
V:2
 [D,A,D]4 [D,G,C]2 [D,F,]2 | [D,B,D]3 [D,A,D] [D,A,D]4 | D,4 D,2 D,2 | D,3 D, D,4 | D,4 E,2 F,2 | %5
 G,3 A, B,2 E,2 | A,4 A,,3 A,, | D,6 z2 | z4 D2 E2 | G4 F2 D2 | F4 E2 D2 | D4 C2 z2 | %12
 A,2 G,2 F,2 E,2 | D,2 C,2 D,2 _C,2 | B,,2 =D,2 E,2 =G,2 | z4 C2 z2 | A,4 B,2 C2 | D3 A, A,4 | %18
 [F,_C]4 [G,B,]2 [G,D]2 | [A,DA]3 [A,CA] [A,CA]4 | D,4 E,2 F,2 | G,3 A, B,2 C,2 | A,4 A,,3 A,, | %23
 D,6 z2 |] %24
V:3
 x8 | x8 | x8 | x8 | x8 | x8 | x8 | x8 | A,,8- | A,,8- | A,,8- | A,,6 z2 | x8 | x8 | x8 | A,6 z2 | %16
 x8 | x8 | x8 | x8 | x8 | x8 | x8 | x8 |] %24

